sites/fast-website/src/app/svg/icon-brand.svg

<svg xmlns="http://www.w3.org/2000/svg" class="icon icon-brand" width="140" height="123" viewBox="0 0 140 123">
    <path fill-rule="evenodd" clip-rule="evenodd" d="M124.787 64.442L119.807 63.806C118.922 63.693 118.116 64.3196 117.968 65.1993C116.521 73.7768 112.336 81.673 106.016 87.6923C99.306 94.0835 90.5992 97.9686 81.3608 98.6939C72.1223 99.4192 62.9159 96.9404 55.2905 91.6745C52.8281 89.9741 53.7202 86.3884 56.6107 85.6139L77.6702 79.971C79.4402 79.4968 80.4906 77.6775 80.0163 75.9075C79.542 74.1376 77.7227 73.0872 75.9528 73.5615L48.8555 80.8222C48.7851 80.841 48.7146 80.8584 48.6439 80.8743L35.8654 84.2983C35.8383 84.3085 35.8105 84.3176 35.7818 84.3253C34.0118 84.7995 32.9614 86.6188 33.4357 88.3888C33.91 90.1587 35.7293 91.2091 37.4992 90.7348L37.7893 90.6571C39.7787 90.124 41.8787 90.8082 43.3116 92.2877C45.5196 94.5675 47.9587 96.6388 50.6019 98.464C59.7876 104.807 70.8777 107.793 82.0065 106.92C93.1354 106.046 103.624 101.366 111.707 93.6669C118.175 87.5061 122.788 79.7131 125.097 71.1712C125.534 69.5541 125.889 67.9101 126.158 66.2453C126.3 65.3646 125.672 64.555 124.787 64.442ZM23.4786 60.1661C23.3015 60.1949 23.1237 60.233 22.9458 60.2806L12.5227 63.0735C10.7527 63.5478 8.93343 62.4974 8.45917 60.7274C7.98491 58.9575 9.03529 57.1382 10.8052 56.6639L26.7621 52.3883C28.8102 51.8395 30.3091 50.1183 30.765 48.0476C31.3965 45.1795 32.2903 42.3587 33.4444 39.6214C37.7811 29.3352 45.5284 20.8565 55.3827 15.6118C65.237 10.3672 76.597 8.6766 87.5515 10.8245C96.3173 12.5433 104.395 16.6361 110.934 22.598C112.172 23.7267 113.354 24.9224 114.476 26.1816C115.07 26.8478 114.975 27.8684 114.289 28.4394L110.432 31.6522L109.195 32.6822C109.192 32.6843 109.189 32.684 109.186 32.6815C103.256 25.5633 95.0556 20.7042 85.9638 18.9215C76.8701 17.1384 67.4397 18.5418 59.2592 22.8956C51.0788 27.2494 44.6475 34.2879 41.0473 42.8269C39.8862 45.581 42.496 48.1724 45.3831 47.3988L47.6051 46.8034C49.3751 46.3292 51.1944 47.3795 51.6686 49.1495C52.1429 50.9194 51.0925 52.7387 49.3226 53.213L41.6555 55.2674C41.4799 55.3144 41.3081 55.37 41.1405 55.4336L23.4786 60.1661Z" fill="#FF4387"/>
    <rect x="69.9038" y="56.905" width="6.63569" height="16.4542" rx="3.31784" transform="rotate(75 69.9038 56.905)" fill="#FF4387"/>
    <rect x="48.3325" y="62.7026" width="6.63569" height="49.7677" rx="3.31784" transform="rotate(75 48.3325 62.7026)" fill="#FF4387"/>
    <rect x="94.3643" y="50.5649" width="6.63569" height="19.8293" rx="3.31784" transform="rotate(75 94.3643 50.5649)" fill="#FF4387"/>
    <path fill-rule="evenodd" clip-rule="evenodd" d="M97.7255 51.9268C100.747 63.2025 112.337 69.894 123.613 66.8727C134.888 63.8514 141.58 52.2613 138.559 40.9856C135.537 29.7099 123.947 23.0183 112.671 26.0397C101.396 29.061 94.7041 40.6511 97.7255 51.9268ZM118.15 61.3752C126.579 61.3752 133.412 54.6907 133.412 46.4449C133.412 38.1992 126.579 31.5146 118.15 31.5146C109.721 31.5146 102.888 38.1992 102.888 46.4449C102.888 54.6907 109.721 61.3752 118.15 61.3752Z" fill="#FF4387"/>
</svg>

<svg xmlns="http://www.w3.org/2000/svg" class="icon icon-brand" viewBox="0 0 140 123">
  <path fill-rule="evenodd" clip-rule="evenodd" d="M124.787 64.442l-4.98-.636c-.885-.113-1.691.514-1.839 1.393A40.326 40.326 0 0155.29 91.674c-2.462-1.7-1.57-5.286 1.32-6.06l21.06-5.643a3.318 3.318 0 10-1.717-6.41l-27.098 7.261c-.07.019-.14.036-.211.052l-12.779 3.424a.897.897 0 01-.083.027 3.318 3.318 0 101.717 6.41l.29-.078c1.99-.533 4.09.151 5.523 1.63a48.582 48.582 0 0038.695 14.632 48.577 48.577 0 0044.151-40.674c.142-.88-.486-1.69-1.371-1.803zM23.479 60.166a5.439 5.439 0 00-.533.115l-10.423 2.793a3.318 3.318 0 11-1.718-6.41l15.957-4.276c2.048-.548 3.547-2.27 4.003-4.34a48.57 48.57 0 0124.618-32.436 48.577 48.577 0 0159.093 10.57c.594.666.499 1.686-.187 2.257l-3.857 3.213-1.237 1.03c-.003.002-.006.002-.009 0a40.323 40.323 0 00-68.139 10.145c-1.16 2.754 1.449 5.345 4.336 4.572l2.222-.596a3.318 3.318 0 011.718 6.41l-7.667 2.054a5.35 5.35 0 00-.515.167l-17.662 4.732z" fill="#FF4387"/>
  <rect x="69.904" y="56.905" width="6.636" height="16.454" rx="3.318" transform="rotate(75 69.904 56.905)" fill="#FF4387"/>
  <rect x="48.333" y="62.703" width="6.636" height="49.768" rx="3.318" transform="rotate(75 48.333 62.703)" fill="#FF4387"/>
  <rect x="94.364" y="50.565" width="6.636" height="19.829" rx="3.318" transform="rotate(75 94.364 50.565)" fill="#FF4387"/>
  <path fill-rule="evenodd" clip-rule="evenodd" d="M97.725 51.927c3.022 11.276 14.612 17.967 25.888 14.946 11.275-3.022 17.967-14.612 14.946-25.887-3.022-11.276-14.612-17.968-25.888-14.946-11.275 3.021-17.967 14.611-14.946 25.887zm20.425 9.448c8.429 0 15.262-6.684 15.262-14.93 0-8.246-6.833-14.93-15.262-14.93s-15.262 6.684-15.262 14.93c0 8.246 6.833 14.93 15.262 14.93z" fill="#FF4387"/>
</svg>
